!!!OTL: BALD GRAS ICH AM NECKAR
!!!ARE: Europa, Mitteleuropa, Deutschland, Hessen, Odenwald, Lindenfels
!!!SCT: E1049
!!!YEM: Copyright 1995, estate of Helmut Schaffrath.
**kern
*ICvox
*Ivox
*M3/4
*k[]
*C:
{8e
8d
=1
4c
4E
8G
8E
=2
4D
4F}
{8d
8c
=3
4B
4G
8G
8F
=4
4E
4G}
{8e
8d
=5
4c
4E
8G
8E
=6
4D
4F}
{8d
8c
=7
4B
4G
8G
8B
=8
2c
4r}
=9
{4A
4f
4c
=10
4G
4e
4c}
=11
{8.B
16A
8.B
16c
4d
=12
8.c
16B
8.c
16d
4e}
=13
{4A
4f
4d
=14
4G
4e
4c}
=15
{8.B
16A
8.B
16c
8.d
16B
=16
4c
4r}
==
!!!AGN: Tanz - Lied, Jodler
!!!ONB: ESAC (Essen Associative Code) Database: ERK3
!!!AMT: simple triple
!!!AIN: vox
!!!EED: Helmut Schaffrath
!!!EEV: 1.0
*-
